X:1761
T:The Merry Gardener
M:C|
L:1/8
N:"collected by J. O'Neill"
B:O'Neill's 1761
R:Hornpipe
Z:"Transcribed by Bob Safranek, rjs@gsp.org"
K:F
AB|dcAGA F2 DE|FGAc    f2 fg|agfd cAFA|dcAF GBAG|
FEDE FGAc|dfeg    f2 ed|cAGF GBAG|F2 F2  F2    :|
|: cB|AFAc fagf|egfd    c2 de|fdcA BABc|AFBA G2 cB|
Acfa bgec|afcA cB2 cB|Acfc dBGE|F2 F2  F2    :|
